icons/svg/transport/parking_multi-storey.svg

<?xml version="1.0" encoding="UTF-8" standalone="no"?>
<!-- Created with Inkscape (http://www.inkscape.org/) -->

<svg
   xmlns:dc="http://purl.org/dc/elements/1.1/"
   xmlns:cc="http://creativecommons.org/ns#"
   xmlns:rdf="http://www.w3.org/1999/02/22-rdf-syntax-ns#"
   xmlns:svg="http://www.w3.org/2000/svg"
   xmlns="http://www.w3.org/2000/svg"
   xmlns:sodipodi="http://sodipodi.sourceforge.net/DTD/sodipodi-0.dtd"
   xmlns:inkscape="http://www.inkscape.org/namespaces/inkscape"
   version="1.0"
   width="580"
   height="580"
   id="svg2"
   sodipodi:version="0.32"
   inkscape:version="0.48.4 r9939"
   sodipodi:docname="parking_multi-storey.svg"
   inkscape:output_extension="org.inkscape.output.svg.inkscape">
  <metadata
     id="metadata10">
    <rdf:RDF>
      <cc:Work
         rdf:about="">
        <dc:format>image/svg+xml</dc:format>
        <dc:type
           rdf:resource="http://purl.org/dc/dcmitype/StillImage" />
        <cc:license
           rdf:resource="http://web.resource.org/cc/PublicDomain" />
        <dc:language>en</dc:language>
        <dc:title />
      </cc:Work>
    </rdf:RDF>
  </metadata>
  <sodipodi:namedview
     inkscape:window-height="1004"
     inkscape:window-width="1920"
     inkscape:pageshadow="2"
     inkscape:pageopacity="0.0"
     guidetolerance="10.0"
     gridtolerance="10.0"
     objecttolerance="10.0"
     borderopacity="1.0"
     bordercolor="#666666"
     pagecolor="#ffffff"
     id="base"
     showgrid="false"
     inkscape:zoom="0.25"
     inkscape:cx="649.83491"
     inkscape:cy="492.5229"
     inkscape:window-x="1680"
     inkscape:window-y="0"
     inkscape:current-layer="svg2"
     inkscape:window-maximized="1" />
  <defs
     id="defs4">
    <inkscape:perspective
       sodipodi:type="inkscape:persp3d"
       inkscape:vp_x="0 : 290 : 1"
       inkscape:vp_y="0 : 1000 : 0"
       inkscape:vp_z="580 : 290 : 1"
       inkscape:persp3d-origin="290 : 193.33333 : 1"
       id="perspective12" />
    <style
       type="text/css"
       id="style6">
   
    .fil0 {fill:#EF7900}
   
  </style>
    <inkscape:perspective
       id="perspective6807"
       inkscape:persp3d-origin="29.116032 : 19.410688 : 1"
       inkscape:vp_z="58.232063 : 29.116032 : 1"
       inkscape:vp_y="0 : 1000 : 0"
       inkscape:vp_x="0 : 29.116032 : 1"
       sodipodi:type="inkscape:persp3d" />
    <inkscape:perspective
       id="perspective6954"
       inkscape:persp3d-origin="290 : 193.33333 : 1"
       inkscape:vp_z="580 : 290 : 1"
       inkscape:vp_y="0 : 1000 : 0"
       inkscape:vp_x="0 : 290 : 1"
       sodipodi:type="inkscape:persp3d" />
    <marker
       viewBox="0 0 10 10"
       refY="5"
       refX="10"
       orient="auto"
       markerWidth="4"
       markerUnits="strokeWidth"
       markerHeight="3"
       id="ArrowStart">
      <path
         id="path2295"
         d="M 10 0 L 0 5 L 10 10 z" />
    </marker>
    <marker
       viewBox="0 0 10 10"
       refY="5"
       refX="0"
       orient="auto"
       markerWidth="4"
       markerUnits="strokeWidth"
       markerHeight="3"
       id="ArrowEnd">
      <path
         id="path2292"
         d="M 0 0 L 10 5 L 0 10 z" />
    </marker>
    <inkscape:perspective
       id="perspective7597"
       inkscape:persp3d-origin="178.5405 : 158.483 : 1"
       inkscape:vp_z="357.08099 : 237.7245 : 1"
       inkscape:vp_y="0 : 1000 : 0"
       inkscape:vp_x="0 : 237.7245 : 1"
       sodipodi:type="inkscape:persp3d" />
  </defs>
  <g
     id="g1327">
    <path
       d="M 66.275,1.768 C 24.94,1.768 1.704,23.139 1.704,66.804 L 1.704,516.927 C 1.704,557.771 22.598,579.156 63.896,579.156 L 515.92,579.156 C 557.227,579.156 578.149,558.84 578.149,516.927 L 578.149,66.804 C 578.149,24.203 557.227,1.768 514.627,1.768 C 514.624,1.768 66.133,1.625 66.275,1.768 z"
       style="fill:#111111;stroke:#eeeeee;stroke-width:3.40799999"
       id="path1329" />
  </g>
  <g
     id="g2319"
     transform="translate(879.29125,36.805119)">
    <path
       id="path2323"
       style="fill:#ffffff;stroke:none"
       d="" />
  </g>
  <g
     id="g2325"
     transform="translate(879.29125,36.805119)">
    <path
       id="path2329"
       style="fill:#ffffff;stroke:none"
       d="" />
  </g>
  <path
     style="font-size:143.53205872px;font-style:normal;font-weight:normal;fill:#ffffff;fill-opacity:1;stroke:#ffffff;stroke-width:17.9834919;stroke-linecap:round;stroke-linejoin:round;stroke-miterlimit:4;stroke-opacity:1;stroke-dasharray:none;font-family:Bitstream Vera Sans"
     d="m 43.910723,456.29129 0,-332.58258 125.455767,0 c 22.08121,3.5e-4 38.94476,1.05905 50.59064,3.17609 16.33398,2.72272 30.02143,7.90276 41.06239,15.5402 11.04044,7.63804 19.92594,18.33847 26.65649,32.10126 6.73003,13.76334 10.09517,28.88759 10.09547,45.37279 -3e-4,28.28257 -8.99923,52.2167 -26.99682,71.80243 -17.99812,19.58605 -50.51523,29.37901 -97.5515,29.3789 l -85.300848,0 0,135.21091 -44.011589,0 z m 44.011589,-174.45838 85.981458,0 c 28.43341,1.7e-4 48.62426,-5.29333 60.57267,-15.88049 11.94791,-10.58678 17.92198,-25.48417 17.92225,-44.69222 -2.7e-4,-13.91407 -3.51664,-25.8244 -10.54919,-35.73103 -7.03303,-9.90614 -16.2966,-16.44737 -27.79085,-19.62374 -7.41107,-1.96588 -21.09851,-2.94894 -41.06236,-2.94924 l -85.073978,0 0,118.87672 z"
     id="text2419"
     inkscape:connector-curvature="0" />
  <path
     style="fill:none;stroke:#ffffff;stroke-width:30.93394661;stroke-linecap:butt;stroke-linejoin:round;stroke-miterlimit:4;stroke-opacity:1;stroke-dasharray:none"
     d="m 333.70574,285 224.20078,0"
     id="path2997"
     inkscape:connector-curvature="0"
     sodipodi:nodetypes="cc" />
  <path
     inkscape:connector-curvature="0"
     style="fill:#ffffff;stroke:none"
     d="m 401.9258,58.893619 c -12.90893,0 -19.75684,7.047432 -22.91824,15.296708 l -16.78165,43.331753 c -6.65256,0.85303 -18.44552,8.6619 -18.44552,23.45495 l 0,55.10395 16.33439,0 0,17.62254 c 0,21.6809 30.68288,21.42556 30.68288,0 l 0,-17.62254 55.19341,0 0.0179,0 55.19338,0 0,17.62254 c 0,21.42556 30.68274,21.6809 30.68291,0 l 0,-17.62254 16.33436,0 0,-55.10395 c 0,-14.79304 -11.79288,-22.60192 -18.44554,-23.45495 L 512.9746,74.190327 C 509.81321,65.941051 502.96536,58.893619 490.05634,58.893619 l -23.72327,0 -40.39771,0 -24.00954,0 z m -0.19681,15.779766 44.22629,0 0.0358,0 0.0179,0 44.24416,0 c 5.53214,0.05151 7.90147,3.511186 9.48217,8.301365 l 12.64883,34.10006 -66.37516,0 -0.0179,0 -0.0358,0 -66.35732,0 12.64886,-34.10006 c 1.58071,-4.790179 3.94944,-8.249854 9.48217,-8.301365 z m -25.78077,58.986275 c 7.82792,0 14.16959,6.53117 14.16959,14.59897 -1e-5,8.06836 -6.34167,14.61685 -14.16959,14.61685 -7.82733,0 -14.16959,-6.5485 -14.16959,-14.61685 0,-8.06778 6.34226,-14.59897 14.16959,-14.59897 z m 140.10358,0 c 7.82792,0 14.16964,6.53119 14.16959,14.59897 0,8.06835 -6.34167,14.61685 -14.16959,14.61685 -7.82733,0 -14.18751,-6.54849 -14.18751,-14.61685 0,-8.0678 6.36018,-14.59897 14.18751,-14.59897 z"
     id="path2301" />
  <path
     inkscape:connector-curvature="0"
     style="fill:#ffffff;stroke:none"
     d="m 401.9258,347.51252 c -12.90893,0 -19.75684,7.04743 -22.91824,15.29671 l -16.78165,43.33175 c -6.65256,0.85303 -18.44552,8.6619 -18.44552,23.45495 l 0,55.10395 16.33439,0 0,17.62254 c 0,21.6809 30.68288,21.42556 30.68288,0 l 0,-17.62254 55.19341,0 0.0179,0 55.19338,0 0,17.62254 c 0,21.42556 30.68274,21.6809 30.68291,0 l 0,-17.62254 16.33436,0 0,-55.10395 c 0,-14.79304 -11.79288,-22.60192 -18.44554,-23.45495 L 512.9746,362.80923 c -3.16139,-8.24928 -10.00924,-15.29671 -22.91826,-15.29671 l -23.72327,0 -40.39771,0 -24.00954,0 z m -0.19681,15.77976 44.22629,0 0.0358,0 0.0179,0 44.24416,0 c 5.53214,0.0515 7.90147,3.51119 9.48217,8.30137 l 12.64883,34.10006 -66.37516,0 -0.0179,0 -0.0358,0 -66.35732,0 12.64886,-34.10006 c 1.58071,-4.79018 3.94944,-8.24986 9.48217,-8.30137 z m -25.78077,58.98628 c 7.82792,0 14.16959,6.53117 14.16959,14.59897 -1e-5,8.06836 -6.34167,14.61685 -14.16959,14.61685 -7.82733,0 -14.16959,-6.5485 -14.16959,-14.61685 0,-8.06778 6.34226,-14.59897 14.16959,-14.59897 z m 140.10358,0 c 7.82792,0 14.16964,6.53119 14.16959,14.59897 0,8.06835 -6.34167,14.61685 -14.16959,14.61685 -7.82733,0 -14.18751,-6.54849 -14.18751,-14.61685 0,-8.0678 6.36018,-14.59897 14.18751,-14.59897 z"
     id="path2301-5" />
</svg>

<svg width="580" height="580" viewBox="0 0 580 580" fill="none" xmlns="http://www.w3.org/2000/svg">
<g clip-path="url(#clip0)">
<path d="M66.2751 1.76766C24.9401 1.76766 1.7041 23.1387 1.7041 66.8037V516.927C1.7041 557.771 22.5981 579.156 63.8961 579.156H515.92C557.227 579.156 578.149 558.84 578.149 516.927V66.8037C578.149 24.2027 557.227 1.76766 514.627 1.76766C514.624 1.76766 66.1331 1.62466 66.2751 1.76766Z" fill="#111111" stroke="#EEEEEE" stroke-width="3.408"/>
<path d="M43.9111 456.292V123.709H169.367C191.448 123.709 208.312 124.768 219.958 126.885C236.292 129.608 249.979 134.788 261.02 142.425C272.06 150.063 280.946 160.764 287.676 174.527C294.406 188.29 297.772 203.414 297.772 219.899C297.772 248.182 288.773 272.116 270.775 291.702C252.777 311.288 220.26 321.081 173.224 321.081H87.9227V456.292H43.9111V456.292ZM87.9227 281.833H173.904C202.338 281.833 222.528 276.54 234.477 265.953C246.425 255.366 252.399 240.469 252.399 221.26C252.399 207.346 248.882 195.436 241.85 185.529C234.817 175.623 225.553 169.082 214.059 165.906C206.648 163.94 192.961 162.957 172.997 162.956H87.9227V281.833V281.833Z" fill="white" stroke="white" stroke-width="17.9835" stroke-linecap="round" stroke-linejoin="round"/>
<path d="M333.706 285H557.907" stroke="white" stroke-width="30.9339" stroke-linejoin="round"/>
<path d="M401.926 58.8936C389.017 58.8936 382.169 65.941 379.007 74.1903L362.226 117.522C355.573 118.375 343.78 126.184 343.78 140.977V196.081H360.115V213.703C360.115 235.384 390.798 235.129 390.798 213.703V196.081H445.991H446.009H501.202V213.703C501.202 235.129 531.885 235.384 531.885 213.703V196.081H548.219V140.977C548.219 126.184 536.427 118.375 529.774 117.522L512.974 74.1903C509.813 65.941 502.965 58.8936 490.056 58.8936H466.333H425.935H401.926V58.8936ZM401.729 74.6733H445.955H445.991H446.009H490.253C495.785 74.7248 498.154 78.1845 499.735 82.9747L512.384 117.075H446.009H445.991H445.955H379.598L392.247 82.9747C393.827 78.1845 396.196 74.7248 401.729 74.6733V74.6733ZM375.948 133.66C383.776 133.66 390.118 140.191 390.118 148.259C390.118 156.327 383.776 162.875 375.948 162.875C368.121 162.875 361.779 156.327 361.779 148.259C361.779 140.191 368.121 133.66 375.948 133.66V133.66ZM516.052 133.66C523.88 133.66 530.221 140.191 530.221 148.259C530.221 156.327 523.88 162.875 516.052 162.875C508.224 162.875 501.864 156.327 501.864 148.259C501.864 140.191 508.224 133.66 516.052 133.66Z" fill="white"/>
<path d="M401.926 347.513C389.017 347.513 382.169 354.56 379.007 362.809L362.226 406.141C355.573 406.994 343.78 414.803 343.78 429.596V484.7H360.115V502.323C360.115 524.004 390.798 523.748 390.798 502.323V484.7H445.991H446.009H501.202V502.323C501.202 523.748 531.885 524.004 531.885 502.323V484.7H548.219V429.596C548.219 414.803 536.427 406.994 529.774 406.141L512.974 362.809C509.813 354.56 502.965 347.513 490.056 347.513H466.333H425.935H401.926V347.513ZM401.729 363.292H445.955H445.991H446.009H490.253C495.785 363.344 498.154 366.804 499.735 371.594L512.384 405.694H446.009H445.991H445.955H379.598L392.247 371.594C393.827 366.804 396.196 363.344 401.729 363.292V363.292ZM375.948 422.279C383.776 422.279 390.118 428.81 390.118 436.878C390.118 444.946 383.776 451.495 375.948 451.495C368.121 451.495 361.779 444.946 361.779 436.878C361.779 428.81 368.121 422.279 375.948 422.279V422.279ZM516.052 422.279C523.88 422.279 530.221 428.81 530.221 436.878C530.221 444.946 523.88 451.495 516.052 451.495C508.224 451.495 501.864 444.946 501.864 436.878C501.864 428.81 508.224 422.279 516.052 422.279Z" fill="white"/>
</g>
<defs>
<clipPath id="clip0">
<path d="M0 0H580V580H0V0Z" fill="white"/>
</clipPath>
</defs>
</svg>
